site/components/footer/SVG/linked-in.svg

<?xml version="1.0" encoding="UTF-8" standalone="no"?>
<svg width="21px" height="20px" viewBox="0 0 21 20" version="1.1" xmlns="http://www.w3.org/2000/svg" xmlns:xlink="http://www.w3.org/1999/xlink">
    <!-- Generator: sketchtool 39.1 (31720) - http://www.bohemiancoding.com/sketch -->
    <title>7F3734C3-AE55-4A7E-A45E-D0D19FB1154E</title>
    <desc>Created with sketchtool.</desc>
    <defs></defs>
    <g id="Symbols" stroke="none" stroke-width="1" fill="none" fill-rule="evenodd">
        <g id="Footer" transform="translate(-484.000000, -163.000000)" fill="#FFFFFF">
            <g id="LinkedIn" transform="translate(484.000000, 163.000000)">
                <g id="Fill-10">
                    <path d="M17.08,17.0422222 L14.1144444,17.0422222 L14.1144444,12.4005556 C14.1144444,11.2938889 14.095,9.87 12.5727778,9.87 C11.0294444,9.87 10.7938889,11.0761111 10.7938889,12.3216667 L10.7938889,17.0422222 L7.83111111,17.0422222 L7.83111111,7.49777778 L10.6744444,7.49777778 L10.6744444,8.80277778 L10.715,8.80277778 C11.1105556,8.05222222 12.0788889,7.26111111 13.5222222,7.26111111 C16.525,7.26111111 17.08,9.23722222 17.08,11.8077778 L17.08,17.0422222 L17.08,17.0422222 Z M4.48611111,6.19388889 C3.53333333,6.19388889 2.76555556,5.42333333 2.76555556,4.47333333 C2.76555556,3.52388889 3.53333333,2.75333333 4.48611111,2.75333333 C5.435,2.75333333 6.20555556,3.52388889 6.20555556,4.47333333 C6.20555556,5.42333333 5.435,6.19388889 4.48611111,6.19388889 L4.48611111,6.19388889 Z M3.00111111,17.0422222 L5.97,17.0422222 L5.97,7.49777778 L3.00111111,7.49777778 L3.00111111,17.0422222 Z M18.5572222,0 L1.51277778,0 C0.698888889,0 0.0372222222,0.645555556 0.0372222222,1.44222222 L0.0372222222,18.5566667 C0.0372222222,19.3533333 0.698888889,20 1.51277778,20 L18.5572222,20 C19.3733333,20 20.0366667,19.3533333 20.0366667,18.5566667 L20.0366667,1.44222222 C20.0366667,0.645555556 19.3733333,0 18.5572222,0 L18.5572222,0 Z"></path>
                </g>
            </g>
        </g>
    </g>
</svg>

<svg width="21" height="20" viewBox="0 0 21 20" xmlns="http://www.w3.org/2000/svg"><path d="M17.08 17.042h-2.966v-4.641c0-1.107-.019-2.531-1.541-2.531-1.544 0-1.78 1.206-1.78 2.452v4.72H7.832V7.498h2.843v1.305h.041c.396-.75 1.364-1.542 2.807-1.542 3.003 0 3.558 1.976 3.558 4.547v5.234zM4.486 6.194a1.72 1.72 0 0 1-1.72-1.72 1.719 1.719 0 1 1 3.44 0c0 .95-.771 1.72-1.72 1.72zM3.001 17.042H5.97V7.498H3.001v9.544zM18.557 0H1.513C.699 0 .037.646.037 1.442v17.115C.037 19.353.7 20 1.513 20h17.044c.816 0 1.48-.647 1.48-1.443V1.442c0-.796-.664-1.442-1.48-1.442z" fill="#FFF" fill-rule="evenodd"/></svg>
